build/assets/images/proyectos/logos/fichas/logo-tagliatella.svg

<svg width="200" height="45" viewBox="0 0 200 45" fill="none" xmlns="http://www.w3.org/2000/svg">
<g clip-path="url(#clip0)">
<path d="M24.2077 33.3657C28.8525 34.4586 33.4973 35.6062 38.0875 36.6991C37.5411 35.169 36.7214 33.9122 36.776 32.71C36.776 31.4532 37.3771 30.0324 38.0875 28.9395C39.7269 26.2619 42.1859 24.4586 45.1913 23.475C47.1585 22.8193 49.1257 22.6553 50.7104 23.9122C52.0219 23.475 53.1148 23.1471 54.2077 22.8193C54.317 22.9286 54.3717 23.0379 54.481 23.1472C52.4045 26.8084 50.2733 30.5242 48.1968 34.1854C48.3061 34.2947 48.47 34.4586 48.5793 34.5679C49.7815 33.639 50.929 32.71 52.1859 31.7264C53.0602 32.1089 53.3881 32.6007 52.4591 33.3111C51.2569 34.2947 50.0547 35.3876 48.6886 36.1526C47.1039 37.0269 46.2296 36.5351 45.5738 34.7865C45.246 34.9504 44.8635 35.0597 44.5902 35.3329C40.4919 38.8302 35.6831 38.8302 30.7651 38.1745C27.8143 37.792 24.8635 37.1362 22.0219 36.1526C19.0711 35.169 16.2296 35.169 13.2241 35.4422C10.1094 35.7154 6.93996 35.4969 3.77056 35.3876C3.06018 35.3876 2.29515 35.2237 1.7487 34.7865C1.03832 34.24 0.0547145 33.3657 0.109359 32.71C0.109359 31.9996 1.14761 30.7974 1.85799 30.7428C4.9181 30.4149 8.03286 30.1417 11.093 30.4149C14.1531 30.6881 17.1585 31.6171 20.2187 32.1635C20.929 32.2728 21.858 32.2182 22.5137 31.8903C25.5738 30.4696 27.6503 27.9559 29.6176 25.0051C27.705 26.0433 26.011 27.0269 24.2624 27.8466C21.2023 29.2674 18.0329 29.8138 14.6995 29.1581C12.623 28.7209 10.8197 27.792 9.39898 26.1526C9.1804 25.934 9.23505 25.4969 9.1804 25.169C9.50827 25.169 9.89078 25.1144 10.2186 25.169C10.4919 25.2237 10.7105 25.4422 10.929 25.6062C14.5356 28.8849 18.7432 28.8849 22.8416 27.1362C27.705 25.0597 31.9673 22.2182 34.6449 17.3548C37.4864 12.1635 40.8744 7.3548 45.4646 3.52966C46.7214 2.49141 48.1421 1.67174 49.6176 0.96136C50.164 0.688136 51.3116 0.85207 51.6941 1.23458C52.0766 1.6171 52.0766 2.76464 51.8033 3.31109C51.093 4.73185 50.2733 6.26191 49.1804 7.40945C46.011 10.8521 42.623 14.0761 39.3443 17.4094C38.7979 17.9559 38.3607 18.557 37.9782 19.2127C36.776 21.2892 35.6831 23.4204 34.3717 25.3876C32.2952 28.557 29.399 30.8521 25.8471 32.2728C25.3006 32.4914 24.8088 32.7646 24.2624 32.9832C24.2077 33.0379 24.2077 33.2018 24.2077 33.3657ZM41.7487 34.7318C42.2952 34.5133 43.2241 34.1308 44.1531 33.6936C46.8853 32.4368 47.9236 29.7592 49.2897 27.3548C49.6176 26.8084 49.8908 25.7701 49.6722 25.5515C49.0711 25.0597 48.1422 24.6226 47.3771 24.6226C43.9891 24.7865 39.6722 29.1034 39.3443 32.4368C39.235 33.8575 40.0001 34.7318 41.7487 34.7318ZM50.4919 1.94497C45.1913 4.56792 42.8416 9.59524 40.0001 14.8411C43.8799 12.2728 50.2733 4.62256 50.4919 1.94497ZM14.2077 33.9122C10.6012 32.8193 7.04925 31.3985 3.22411 31.781C2.56837 31.8357 2.02193 32.4368 1.36619 32.7646C1.91264 33.1471 2.40444 33.7482 3.00554 33.8575C6.72138 34.6772 10.4372 34.5133 14.2077 33.9122Z" fill="white"/>
<path d="M169.891 34.732C171.202 33.803 172.568 32.9287 173.989 31.9451C174.262 32.1637 174.59 32.4369 175.082 32.8194C180.328 23.0926 185.519 13.5298 190.71 3.9123C190.601 3.80301 190.547 3.74836 190.437 3.63907C189.563 4.24017 188.743 4.84126 187.76 5.49699C187.486 5.16912 187.159 4.84126 186.721 4.4041C188.033 3.47513 189.126 2.43689 190.437 1.83579C191.257 1.45328 192.35 1.56257 193.333 1.45328C193.279 2.43689 193.497 3.52978 193.115 4.29481C191.639 7.30027 190 10.1418 188.415 13.0926C184.809 19.7046 181.202 26.3167 177.65 32.874C177.377 33.3112 177.213 33.803 177.104 34.4041C179.235 33.6391 181.202 32.7648 182.186 30.579C183.989 26.5352 187.104 24.1309 191.257 23.038C192.896 22.6008 194.536 22.7101 195.738 23.7484C196.995 23.3112 198.142 22.9833 199.29 22.6008C199.399 22.7101 199.454 22.8194 199.563 22.874C197.432 26.5899 195.355 30.3057 193.224 34.0216C193.388 34.1309 193.497 34.2948 193.661 34.4041C194.809 33.4751 195.956 32.5462 197.268 31.5079C197.541 31.7265 197.869 31.9451 198.525 32.4915C196.831 33.7484 195.41 35.0052 193.771 35.9888C192.186 36.9178 191.312 36.426 190.71 34.8413C189.071 35.3331 187.486 36.0434 185.792 36.3167C183.825 36.6445 182.459 35.6063 181.749 33.7484C180.437 34.568 179.29 35.497 177.924 36.0434C177.049 36.3713 175.792 36.4806 175.027 36.0981C174.536 35.8249 174.536 34.5134 174.262 33.6391C174.098 33.7484 173.716 34.0216 173.333 34.2948C172.678 34.7866 172.022 35.2784 171.312 35.6609C170.055 36.3167 168.634 37.2456 167.377 36.0434C166.175 34.9505 167.104 33.5844 167.705 32.4369C172.568 23.3658 177.486 14.2948 182.35 5.27842C182.568 4.84126 182.787 4.34946 182.787 3.63907C181.967 4.24017 181.202 4.84126 180.219 5.49699C179.891 5.22377 179.563 4.95054 179.235 4.62267C179.399 4.40409 179.454 4.24017 179.563 4.18552C180.984 3.20191 182.404 2.2183 183.934 1.34398C184.372 1.1254 185.301 1.12541 185.574 1.45328C185.956 1.83579 186.12 2.65546 185.956 3.20191C185.792 4.02158 185.301 4.78661 184.863 5.55164C179.945 14.568 175.027 23.6391 170.109 32.6555C169.836 33.2019 169.563 33.803 169.29 34.3494C169.618 34.5134 169.781 34.6227 169.891 34.732ZM184.536 32.3822C184.426 33.9669 185.41 34.8959 186.995 34.4587C188.033 34.1855 189.016 33.6391 189.945 33.1473C192.35 31.8358 193.169 29.2675 194.481 27.1363C195.465 25.5516 194.809 24.5134 192.842 24.5134C189.454 24.5134 184.7 28.9943 184.536 32.3822Z" fill="white"/>
<path d="M98.1968 7.79208C93.2241 6.5899 88.5247 5.16914 83.7159 5.93416C76.5028 7.0817 71.1476 11.2347 67.7596 17.6828C66.6121 19.8686 66.2842 22.3276 67.8143 24.6773C68.0329 25.0052 67.7596 25.6609 67.705 26.262C65.5739 25.0052 64.7542 22.6008 65.6285 19.7046C67.4864 13.5844 71.4208 9.1582 77.0493 6.26203C83.1695 3.14727 89.7269 2.9287 96.3389 4.13088C98.1968 4.45875 100.055 4.95056 101.967 5.22378C102.732 5.33307 103.607 5.16913 104.317 4.95056C108.415 3.69373 112.568 2.32761 116.94 2.9287C117.76 3.03799 118.689 3.31121 119.399 3.74837C120.055 4.18553 120.874 5.0052 120.874 5.66094C120.874 6.26203 120 7.24564 119.29 7.46422C117.213 8.1746 115.027 8.99427 112.842 9.04891C109.454 9.1582 105.956 8.93962 102.623 8.44782C100.656 8.17459 99.2351 8.61176 97.8143 9.7593C94.4263 12.4369 92.0766 15.9888 90.164 19.8139C88.6886 22.7648 87.4318 25.8795 85.5739 28.6664C80.7651 35.8795 74.0984 39.9232 65.1913 39.2128C63.0602 39.0489 60.8198 38.0653 59.0711 36.8631C56.6668 35.2238 56.776 31.9451 59.2351 30.1964C59.1804 31.0708 59.2351 31.7265 59.0711 32.3276C58.5247 34.1855 58.7979 35.1691 60.3826 36.262C63.4974 38.3385 66.8307 38.721 70.3826 37.4642C73.3881 36.3713 75.9564 34.6227 77.9236 32.1637C80.3826 29.1582 82.7323 26.0981 84.6449 22.7648C87.9782 17.0817 91.858 11.9997 97.4318 8.33853C97.6503 8.28389 97.8143 8.11995 98.1968 7.79208ZM106.066 6.20739C107.213 6.42597 108.361 6.80847 109.508 6.80847C112.459 6.86312 115.41 6.75384 118.361 6.64455C118.743 6.64455 119.126 5.98881 119.454 5.66094C119.071 5.38772 118.743 4.95056 118.361 4.84127C114.098 3.58444 110.055 4.5134 106.066 6.20739Z" fill="white"/>
<path d="M115.902 23.8576C117.377 23.4204 118.47 23.1472 119.563 22.8193C119.672 22.9833 119.782 23.0926 119.945 23.2565C116.394 28.8849 112.896 34.6226 109.18 40.1964C107.596 42.5461 105.246 44.2401 102.131 43.8576C101.312 43.7483 100.164 42.9833 100 42.3275C99.7815 41.5079 100.273 40.415 100.82 39.5953C101.038 39.2674 102.241 39.1035 102.623 39.3767C103.333 39.8685 103.06 40.5789 102.241 41.0707C102.022 41.18 101.749 41.7264 101.803 41.8357C102.022 42.109 102.404 42.3822 102.678 42.3275C103.552 42.1636 104.7 42.0543 105.246 41.5079C107.049 39.5406 108.634 37.4095 110.164 35.1691C104.59 36.8084 103.279 36.5898 101.967 33.4751C100.765 34.3494 99.6722 35.2784 98.4154 36.0434C96.5575 37.1363 95.7378 36.8084 94.8635 35.0051C93.552 35.4969 92.2952 36.1527 90.929 36.4259C87.5957 37.1909 85.5739 35.1691 86.175 31.8357C86.8853 27.5188 93.1695 22.6554 97.5957 23.0926C98.5247 23.2018 99.4536 23.6937 100.164 23.9122C101.366 23.5297 102.514 23.2018 103.607 22.8193C103.661 22.9286 103.771 23.0379 103.825 23.1472C101.749 26.8631 99.6176 30.5243 97.5411 34.2401C97.6504 34.3494 97.8143 34.4587 97.9236 34.568C99.8908 33.4204 101.694 32.109 102.842 29.9778C104.754 26.5898 107.596 24.3494 111.366 23.3111C113.552 22.7101 114.262 22.874 115.902 23.8576ZM88.634 32.5461C88.5247 34.1308 89.3443 35.0051 90.8744 34.7319C91.858 34.568 92.787 34.0762 93.7159 33.5844C96.2842 32.2729 97.2132 29.6499 98.5793 27.4095C99.5083 25.8248 98.8525 24.7319 97.0493 24.6773C93.7706 24.6226 88.8526 29.2674 88.634 32.5461ZM107.049 34.2401C107.486 34.0762 108.306 33.8576 109.071 33.5297C111.694 32.3275 113.224 30.0871 114.426 27.6281C114.754 27.027 115.082 25.7702 114.918 25.6609C114.153 25.1691 113.169 24.6773 112.295 24.7866C109.071 25.2237 105.465 28.8849 104.754 31.9997C104.536 33.4751 105.137 34.2401 107.049 34.2401Z" fill="white"/>
<path d="M148.743 32.6554C150.219 30.1964 151.694 27.6828 153.279 25.0052C152.459 24.8959 151.749 24.8412 151.038 24.7866C150.984 23.5844 151.476 22.9287 152.732 23.1472C154.098 23.3658 154.809 22.7101 155.41 21.5625C156.066 20.1964 156.94 18.9396 157.486 17.3549C156.94 17.8467 156.284 18.2839 155.792 18.8303C155.082 19.65 154.536 19.486 153.771 18.5024C155.082 17.4642 156.339 16.3166 157.76 15.497C158.361 15.1145 159.399 15.3877 160.219 15.333C160.219 16.1527 160.492 17.027 160.219 17.7374C159.727 18.9942 158.907 20.1418 158.251 21.2893C157.978 21.7811 157.705 22.3276 157.323 22.9833C158.142 23.0926 158.798 23.1472 159.454 23.2019C159.672 24.4587 159.235 25.0598 157.978 24.8412C156.557 24.6226 155.847 25.2237 155.191 26.4259C153.716 29.1035 152.131 31.6718 150.765 34.4587C153.169 33.6937 155.355 32.6554 156.612 30.3604C158.525 26.8084 161.366 24.2948 165.301 23.2019C165.355 23.2019 165.41 23.1472 165.465 23.1472C166.94 22.874 168.47 22.6008 169.454 24.1308C170.164 25.2237 169.508 27.027 167.978 28.2292C165.847 29.9778 163.224 30.5789 160.547 31.0161C159.016 31.2893 158.306 32.0543 158.579 33.3112C158.853 34.7319 160.055 34.6226 161.038 34.5134C161.913 34.4041 162.842 34.0762 163.661 33.7483C164.481 33.4205 165.191 32.9287 165.956 32.4915C166.831 33.1472 167.049 33.7483 165.902 34.2401C163.935 35.0052 162.022 35.9888 160 36.3713C157.65 36.8084 156.503 35.8248 155.738 33.4751C154.863 34.1308 153.989 34.8412 153.06 35.3877C152.295 35.8248 151.421 36.262 150.547 36.4806C148.798 36.8631 147.814 35.8248 148.361 34.0216C148.361 33.5298 148.579 33.0926 148.743 32.6554ZM159.727 29.65C162.568 29.1035 165.027 28.6664 166.612 26.5899C166.94 26.2074 166.885 25.497 167.049 24.9505C166.503 24.8412 165.902 24.568 165.41 24.7319C163.006 25.3877 161.366 27.0817 159.727 29.65Z" fill="white"/>
<path d="M148.798 32.6007C147.322 33.7482 145.902 35.0597 144.262 36.0433C142.568 37.0815 141.585 36.6444 140.929 35.0597C139.18 35.5515 137.541 36.2619 135.792 36.4805C133.825 36.7537 132.514 35.6061 131.913 33.5843C131.038 34.24 130.273 34.8411 129.454 35.3329C128.689 35.7701 127.924 36.2619 127.104 36.3712C126.339 36.4258 125.246 36.2619 124.809 35.7154C124.426 35.2783 124.481 34.1307 124.754 33.475C125.902 31.1799 127.213 28.9941 128.415 26.7537C128.689 26.2619 128.907 25.7154 129.126 25.2236C129.016 25.1143 128.907 25.005 128.743 24.8958C127.596 25.8247 126.448 26.7537 125.301 27.7373C124.098 27.0815 123.989 26.9723 124.973 26.1526C126.23 25.0597 127.596 24.0214 129.071 23.2564C129.672 22.9285 130.984 23.0378 131.421 23.475C131.858 23.9121 131.858 25.169 131.585 25.8247C130.437 28.2291 129.071 30.5242 127.814 32.8739C127.541 33.3657 127.322 33.8029 127.213 34.4039C129.508 33.5296 131.53 32.3274 132.678 30.087C134.536 26.5351 137.486 24.1854 141.366 23.2018C143.552 22.6553 144.208 22.8193 145.902 23.8029C147.213 23.4203 148.361 23.0378 149.454 22.71C149.508 22.8193 149.618 22.9285 149.672 23.0378C147.596 26.699 145.519 30.3602 143.443 34.0214C143.552 34.1307 143.716 34.2947 143.825 34.4039C145.027 33.475 146.175 32.6007 147.432 31.6171C147.869 31.9996 148.306 32.3275 148.798 32.6007C148.798 32.6007 148.743 32.6553 148.798 32.6007ZM137.049 34.7865C137.596 34.5679 138.525 34.1854 139.454 33.7482C142.241 32.4367 143.224 29.6499 144.645 27.2455C144.918 26.8083 145.246 25.8794 145.027 25.7154C144.481 25.2236 143.661 24.6772 142.951 24.6772C139.563 24.6225 134.7 29.3766 134.59 32.71C134.645 34.0214 135.246 34.7318 137.049 34.7865Z" fill="white"/>
<path d="M118.689 34.6773C119.399 34.2401 120.055 33.9123 120.765 33.4204C121.421 32.9833 122.077 32.4368 122.896 31.7811C123.169 32.109 123.443 32.4368 123.661 32.7101C123.607 32.9286 123.607 33.0926 123.497 33.1472C121.967 34.1855 120.546 35.3877 118.907 36.2073C118.197 36.5352 116.831 36.4259 116.284 35.9341C115.847 35.5516 115.902 34.1308 116.23 33.4204C118.525 28.8849 120.929 24.4587 123.333 20.0325C126.011 15.0598 128.689 10.0871 131.421 5.11444C131.639 4.73193 131.749 4.34941 131.749 3.74832C130.874 4.34941 130.055 4.9505 129.126 5.60624C128.852 5.33302 128.579 5.00515 128.306 4.73193C128.361 4.56799 128.361 4.40405 128.415 4.34941C129.618 3.47509 130.82 2.43685 132.131 1.72646C132.842 1.34395 133.825 1.61717 134.699 1.56253C134.699 2.43685 134.918 3.42045 134.59 4.13083C132.842 7.57345 130.984 10.9614 129.126 14.3494C125.738 20.6336 122.295 26.8631 118.907 33.1472C118.689 33.5297 118.525 34.0215 118.361 34.4587C118.415 34.4587 118.525 34.568 118.689 34.6773Z" fill="white"/>
<path d="M136.12 14.2402C135.847 13.9123 135.246 13.4205 135.191 12.9287C135.137 11.7265 136.011 11.0161 137.158 11.0161C137.596 11.0161 138.415 11.7811 138.47 12.2729C138.579 13.4205 137.705 14.0762 136.12 14.2402Z" fill="white"/>
</g>
<defs>
<clipPath id="clip0">
<rect width="200" height="43.7158" fill="white" transform="translate(0 0.305664)"/>
</clipPath>
</defs>
</svg>

<svg width="200" height="45" fill="none" xmlns="http://www.w3.org/2000/svg"><g clip-path="url(#clip0)" fill="#fff"><path d="M24.208 33.366c4.645 1.093 9.29 2.24 13.88 3.333-.547-1.53-1.367-2.787-1.312-3.989 0-1.257.601-2.678 1.311-3.77 1.64-2.678 4.099-4.481 7.104-5.465 1.967-.656 3.935-.82 5.52.437a113.84 113.84 0 013.497-1.093c.109.11.164.219.273.328-2.077 3.661-4.208 7.377-6.284 11.038l.382.383c1.203-.929 2.35-1.858 3.607-2.842.874.383 1.202.875.273 1.585-1.202.984-2.404 2.077-3.77 2.842-1.585.874-2.46.382-3.115-1.367-.328.164-.71.274-.984.547-4.098 3.497-8.907 3.497-13.825 2.842-2.95-.383-5.902-1.039-8.743-2.022-2.95-.984-5.792-.984-8.798-.71-3.115.272-6.284.054-9.453-.055-.71 0-1.476-.164-2.022-.602-.71-.546-1.694-1.42-1.64-2.076 0-.71 1.039-1.913 1.749-1.967 3.06-.328 6.175-.601 9.235-.328 3.06.273 6.066 1.202 9.126 1.748.71.11 1.639.055 2.295-.273 3.06-1.42 5.136-3.934 7.104-6.885-1.913 1.038-3.607 2.022-5.356 2.842-3.06 1.42-6.23 1.967-9.563 1.311-2.076-.437-3.88-1.366-5.3-3.005-.219-.219-.164-.656-.219-.984.328 0 .71-.055 1.039 0 .273.055.492.273.71.437 3.607 3.279 7.814 3.279 11.913 1.53 4.863-2.076 9.125-4.918 11.803-9.781 2.841-5.191 6.23-10 10.82-13.825 1.255-1.04 2.677-1.858 4.153-2.57.546-.273 1.694-.109 2.076.274.383.382.383 1.53.11 2.076-.711 1.42-1.53 2.95-2.624 4.098-3.169 3.443-6.557 6.667-9.836 10a8.715 8.715 0 00-1.366 1.804c-1.202 2.076-2.295 4.207-3.606 6.175-2.077 3.169-4.973 5.464-8.525 6.885-.546.218-1.038.492-1.585.71-.054.055-.054.219-.054.383zm17.54 1.366a45.793 45.793 0 002.405-1.038c2.732-1.257 3.77-3.935 5.137-6.34.328-.546.6-1.584.382-1.802-.6-.492-1.53-.93-2.295-.93-3.388.165-7.705 4.481-8.033 7.815-.109 1.42.656 2.295 2.405 2.295zm8.744-32.787c-5.3 2.623-7.65 7.65-10.492 12.896 3.88-2.568 10.273-10.218 10.492-12.896zM14.208 33.912C10.6 32.82 7.049 31.398 3.224 31.781c-.656.055-1.202.656-1.858.984.547.382 1.038.983 1.64 1.093 3.715.82 7.431.655 11.202.054zm155.683.82c1.311-.929 2.677-1.803 4.098-2.787.273.219.601.492 1.093.874 5.246-9.726 10.437-19.29 15.628-28.907l-.273-.273c-.874.601-1.694 1.202-2.677 1.858-.274-.328-.601-.656-1.039-1.093 1.312-.929 2.405-1.967 3.716-2.568.82-.383 1.913-.273 2.896-.383-.054.984.164 2.077-.218 2.842-1.476 3.005-3.115 5.847-4.7 8.798-3.606 6.612-7.213 13.224-10.765 19.781-.273.437-.437.929-.546 1.53 2.131-.765 4.098-1.64 5.082-3.825 1.803-4.044 4.918-6.448 9.071-7.541 1.639-.437 3.279-.328 4.481.71 1.257-.437 2.404-.765 3.552-1.147.109.11.164.218.273.273-2.131 3.716-4.208 7.432-6.339 11.148.164.109.273.273.437.382 1.148-.929 2.295-1.858 3.607-2.896.273.219.601.437 1.257.984-1.694 1.256-3.115 2.513-4.754 3.497-1.585.929-2.459.437-3.061-1.148-1.639.492-3.224 1.202-4.918 1.476-1.967.328-3.333-.71-4.043-2.569-1.312.82-2.459 1.749-3.825 2.295-.875.328-2.132.438-2.897.055-.491-.273-.491-1.585-.765-2.459-.164.11-.546.383-.929.656-.655.492-1.311.983-2.021 1.366-1.257.656-2.678 1.585-3.935.382-1.202-1.093-.273-2.459.328-3.606 4.863-9.071 9.781-18.142 14.645-27.159.218-.437.437-.929.437-1.639-.82.601-1.585 1.202-2.568 1.858a14.14 14.14 0 01-.984-.874c.164-.219.219-.383.328-.437 1.421-.984 2.841-1.968 4.371-2.842.438-.219 1.367-.219 1.64.11.382.382.546 1.201.382 1.748-.164.82-.655 1.585-1.093 2.35-4.918 9.016-9.836 18.087-14.754 27.104-.273.546-.546 1.147-.819 1.693.328.164.491.274.601.383zm14.645-2.35c-.11 1.585.874 2.514 2.459 2.077 1.038-.274 2.021-.82 2.95-1.312 2.405-1.311 3.224-3.88 4.536-6.01.984-1.585.328-2.624-1.639-2.624-3.388 0-8.142 4.481-8.306 7.87zM98.197 7.792C93.224 6.59 88.525 5.17 83.716 5.934c-7.213 1.148-12.568 5.3-15.956 11.749-1.148 2.186-1.476 4.645.054 6.994.219.328-.054.984-.109 1.585-2.131-1.257-2.95-3.661-2.076-6.557 1.857-6.12 5.792-10.547 11.42-13.443 6.12-3.115 12.678-3.333 19.29-2.131 1.858.328 3.716.82 5.628 1.093.765.11 1.64-.055 2.35-.273 4.098-1.257 8.251-2.623 12.623-2.022.82.109 1.749.382 2.459.82.656.437 1.475 1.256 1.475 1.912 0 .601-.874 1.585-1.584 1.803-2.077.71-4.263 1.53-6.448 1.585-3.388.11-6.886-.11-10.219-.601-1.967-.273-3.388.164-4.809 1.311-3.388 2.678-5.737 6.23-7.65 10.055-1.475 2.95-2.732 6.066-4.59 8.852-4.809 7.213-11.476 11.257-20.383 10.547-2.13-.164-4.371-1.148-6.12-2.35-2.404-1.64-2.295-4.918.164-6.667-.055.875 0 1.53-.164 2.132-.546 1.857-.273 2.841 1.312 3.934 3.114 2.077 6.448 2.459 10 1.202 3.005-1.093 5.573-2.841 7.54-5.3 2.46-3.006 4.81-6.066 6.722-9.4C87.978 17.083 91.858 12 97.432 8.34c.218-.055.382-.22.765-.547zm7.869-1.585c1.147.219 2.295.601 3.442.601 2.951.055 5.902-.054 8.853-.163.382 0 .765-.656 1.093-.984-.383-.273-.711-.71-1.093-.82-4.263-1.257-8.306-.328-12.295 1.366z"/><path d="M115.902 23.858c1.475-.438 2.568-.71 3.661-1.039.109.164.219.274.382.438-3.551 5.628-7.049 11.366-10.765 16.94-1.584 2.35-3.934 4.043-7.049 3.66-.819-.109-1.967-.874-2.131-1.53-.219-.82.273-1.912.82-2.732.218-.328 1.421-.492 1.803-.218.71.491.437 1.202-.382 1.694-.219.109-.492.655-.438.765.219.273.601.546.875.492.874-.164 2.022-.274 2.568-.82 1.803-1.967 3.388-4.099 4.918-6.339-5.574 1.64-6.885 1.42-8.197-1.694-1.202.874-2.295 1.803-3.552 2.568-1.858 1.093-2.677.765-3.552-1.038-1.311.492-2.568 1.148-3.934 1.42-3.333.766-5.355-1.256-4.754-4.59.71-4.316 6.995-9.18 11.42-8.742.93.109 1.859.6 2.569.82 1.202-.383 2.35-.711 3.443-1.094.054.11.164.219.218.328-2.076 3.716-4.207 7.377-6.284 11.093.11.11.273.219.383.328 1.967-1.148 3.77-2.459 4.918-4.59 1.912-3.388 4.754-5.629 8.524-6.667 2.186-.6 2.896-.437 4.536.547zm-27.268 8.688c-.11 1.585.71 2.46 2.24 2.186.984-.164 1.913-.656 2.842-1.148 2.568-1.311 3.497-3.934 4.863-6.175.93-1.584.274-2.677-1.53-2.732-3.278-.054-8.196 4.59-8.415 7.87zm18.415 1.694c.437-.164 1.257-.382 2.022-.71 2.623-1.203 4.153-3.443 5.355-5.902.328-.601.656-1.858.492-1.967-.765-.492-1.749-.984-2.623-.874-3.224.437-6.83 4.098-7.541 7.213-.218 1.475.383 2.24 2.295 2.24zm41.694-1.585c1.476-2.459 2.951-4.972 4.536-7.65-.82-.11-1.53-.164-2.241-.218-.054-1.203.438-1.858 1.694-1.64 1.366.219 2.077-.437 2.678-1.584.656-1.367 1.53-2.623 2.076-4.208-.546.492-1.202.929-1.694 1.475-.71.82-1.256.656-2.021-.328 1.311-1.038 2.568-2.185 3.989-3.005.601-.383 1.639-.11 2.459-.164 0 .82.273 1.694 0 2.404-.492 1.257-1.312 2.405-1.968 3.552-.273.492-.546 1.039-.928 1.694.819.11 1.475.164 2.131.219.218 1.257-.219 1.858-1.476 1.64-1.421-.22-2.131.382-2.787 1.584-1.475 2.678-3.06 5.246-4.426 8.033 2.404-.765 4.59-1.804 5.847-4.099 1.913-3.552 4.754-6.065 8.689-7.158.054 0 .109-.055.164-.055 1.475-.273 3.005-.546 3.989.984.71 1.093.054 2.896-1.476 4.098-2.131 1.749-4.754 2.35-7.431 2.787-1.531.273-2.241 1.038-1.968 2.295.274 1.42 1.476 1.312 2.459 1.202.875-.109 1.804-.437 2.623-.765.82-.328 1.53-.82 2.295-1.256.875.655 1.093 1.256-.054 1.748-1.967.765-3.88 1.749-5.902 2.131-2.35.437-3.497-.546-4.262-2.896-.875.656-1.749 1.366-2.678 1.913-.765.437-1.639.874-2.513 1.093-1.749.382-2.733-.656-2.186-2.46 0-.491.218-.928.382-1.366zm10.984-3.005c2.841-.546 5.3-.984 6.885-3.06.328-.383.273-1.093.437-1.64-.546-.109-1.147-.382-1.639-.218-2.404.656-4.044 2.35-5.683 4.918z"/><path d="M148.798 32.6c-1.476 1.148-2.896 2.46-4.536 3.443-1.694 1.038-2.677.601-3.333-.983-1.749.491-3.388 1.202-5.137 1.42-1.967.274-3.278-.874-3.879-2.896-.875.656-1.64 1.257-2.459 1.749-.765.437-1.53.929-2.35 1.038-.765.055-1.858-.11-2.295-.656-.383-.437-.328-1.584-.055-2.24 1.148-2.295 2.459-4.48 3.661-6.721.274-.492.492-1.039.711-1.53-.11-.11-.219-.219-.383-.328-1.147.929-2.295 1.858-3.442 2.841-1.203-.655-1.312-.765-.328-1.584 1.257-1.093 2.623-2.132 4.098-2.897.601-.328 1.913-.218 2.35.219.437.437.437 1.694.164 2.35-1.148 2.404-2.514 4.7-3.771 7.049-.273.492-.492.929-.601 1.53 2.295-.874 4.317-2.077 5.465-4.317 1.858-3.552 4.808-5.902 8.688-6.885 2.186-.547 2.842-.383 4.536.6 1.311-.382 2.459-.764 3.552-1.092.054.11.164.218.218.328l-6.229 10.983.382.383c1.202-.929 2.35-1.803 3.607-2.787.437.383.874.71 1.366.984 0 0-.055.054 0 0zm-11.749 2.186a45.694 45.694 0 002.405-1.038c2.787-1.311 3.77-4.098 5.191-6.502.273-.438.601-1.367.382-1.53-.546-.492-1.366-1.039-2.076-1.039-3.388-.055-8.251 4.7-8.361 8.033.055 1.311.656 2.022 2.459 2.076z"/><path d="M118.689 34.677c.71-.437 1.366-.765 2.076-1.257.656-.437 1.312-.983 2.131-1.639.273.328.547.656.765.93-.054.218-.054.382-.164.436-1.53 1.038-2.951 2.24-4.59 3.06-.71.328-2.076.219-2.623-.273-.437-.382-.382-1.803-.054-2.514 2.295-4.535 4.699-8.961 7.103-13.388 2.678-4.972 5.356-9.945 8.088-14.918.218-.382.328-.765.328-1.366-.875.601-1.694 1.202-2.623 1.858-.274-.273-.547-.6-.82-.874.055-.164.055-.328.109-.383 1.203-.874 2.405-1.912 3.716-2.623.711-.382 1.694-.109 2.568-.163 0 .874.219 1.857-.109 2.568-1.748 3.442-3.606 6.83-5.464 10.218-3.388 6.285-6.831 12.514-10.219 18.798-.218.383-.382.875-.546 1.312.054 0 .164.109.328.218zM136.12 14.24c-.273-.328-.874-.82-.929-1.311-.054-1.203.82-1.913 1.967-1.913.438 0 1.257.765 1.312 1.257.109 1.148-.765 1.803-2.35 1.967z"/></g><defs><clipPath id="clip0"><path fill="#fff" transform="translate(0 .306)" d="M0 0h200v43.716H0z"/></clipPath></defs></svg>
